X:957
T:Paddy Fahy's
T:Paddy Fahey's
R:reel
C:Paddy Fahy
Z:id:hn-reel-957
M:C|
L:1/8
K:C
c2cB cGEG | F2DF EFGA | _B3G c3d | egdc BGBd |
c2cB cGEG | F2DF EFGA | _B2Gc c=BGF | EGB,D C2EG :|
|: ~c3e g^fag | ^fgec G=FEG | F2DF EFGA | Bcde fdBd |
~c3e g^fag | ^fgec G=FEG | F2DF EG,CE | FDB,D C2EG :|

